destiny4.0/Norte/ilimitada_avanzada_300/img/section-mobile/thunder-3.svg

<?xml version="1.0" encoding="UTF-8"?>
<svg width="38px" height="20px" viewBox="0 0 38 20" version="1.1" xmlns="http://www.w3.org/2000/svg" xmlns:xlink="http://www.w3.org/1999/xlink">
    <title>Icons+Indicators / System-Icons / 00 placeholder / #E60000</title>
    <g id="PDP-Vodafone-One-ilimitada-Total-WS10-600mbps" stroke="none" stroke-width="1" fill="none" fill-rule="evenodd">
        <g id="PDP-Oferta-Norte-Desktop---Destiny-4.0---Ilimitada-Plus-600" transform="translate(-33.000000, -1039.000000)" fill="#E60000" fill-rule="nonzero">
            <g id="Blocks/-Desktop-/-Product-detail-/-Example" transform="translate(20.000000, 572.000000)">
                <g id="Product-detail-/-Desktop-Tablet-/-2-lines" transform="translate(0.000000, 445.000000)">
                    <g id="Group" transform="translate(10.000000, 10.000000)">
                        <g id="thunder-3" transform="translate(3.666667, 12.833333)">
                            <path d="M4.89619237,17.8948008 L11.786196,8.5297621 C11.9601569,8.31133402 11.9601569,8.01781189 11.786196,7.79938382 C11.6104564,7.56673631 11.3161945,7.42894521 11.0030475,7.43266669 L6.37736438,7.43266669 L7.86023889,0.848566243 C7.90251831,0.668862162 7.86142682,0.48145431 7.74643318,0.329527259 C7.63143955,0.177600207 7.45246294,0.0742589631 7.25074512,0.0433165478 C6.84873731,-0.0823747862 6.4045979,0.0731820664 6.20370973,0.410033676 L0.100259559,10.7988243 C-0.0733950908,11.0173266 0.0134322339,11.3107003 0.100259559,11.5292026 C0.275616704,11.7492329 0.536098678,11.8959197 0.798283149,11.8959197 L4.72253773,11.8959197 L3.15283589,17.3813968 C3.04569798,17.7517165 3.27303494,18.133866 3.67550234,18.2599899 C3.76403216,18.3333333 3.93768681,18.3333333 4.02451413,18.3333333 C4.46035325,18.2599899 4.80936505,18.1133031 4.89619237,17.8948008 L4.89619237,17.8948008 Z" id="Path"></path>
                            <path d="M16.812859,17.8948008 L23.7028626,8.5297621 C23.8768236,8.31133402 23.8768236,8.01781189 23.7028626,7.79938382 C23.5271231,7.56673631 23.2328612,7.42894521 22.9197142,7.43266669 L18.2957335,7.43266669 L19.7786081,0.848566243 C19.8208875,0.668862162 19.779796,0.48145431 19.6648023,0.329527259 C19.5498087,0.177600207 19.3708321,0.0742589631 19.1691143,0.0433165478 C18.7671065,-0.0823747862 18.3229671,0.0731820664 18.1220789,0.410033676 L12.0169262,10.7988243 C11.8432716,11.0173266 11.9300989,11.3107003 12.0169262,11.5292026 C12.1922834,11.7492329 12.4527653,11.8959197 12.7149498,11.8959197 L16.6392044,11.8959197 L15.0695026,17.3813968 C14.9623646,17.7517165 15.1897016,18.133866 15.592169,18.2599899 C15.6806988,18.3333333 15.8543535,18.3333333 15.9411808,18.3333333 C16.3770199,18.2599899 16.7260317,18.1133031 16.812859,17.8948008 L16.812859,17.8948008 Z" id="Path"></path>
                            <path d="M30.1862289,17.8948008 L36.5462322,8.5297621 C36.7068115,8.31133402 36.7068115,8.01781189 36.5462322,7.79938382 C36.3840111,7.56673631 36.1123847,7.42894521 35.8233259,7.43266669 L31.5550361,7.43266669 L32.9238433,0.848566243 C32.9628705,0.668862162 32.9249399,0.48145431 32.8187919,0.329527259 C32.7126439,0.177600207 32.5474348,0.0742589631 32.3612337,0.0433165478 C31.9901496,-0.0823747862 31.5801747,0.0731820664 31.3947395,0.410033676 L25.759214,10.7988243 C25.5989174,11.0173266 25.6790657,11.3107003 25.759214,11.5292026 C25.9210821,11.7492329 26.161527,11.8959197 26.4035434,11.8959197 L30.0259323,11.8959197 L28.5769767,17.3813968 C28.4780802,17.7517165 28.6879297,18.133866 29.0594381,18.2599899 C29.1411579,18.3333333 29.3014545,18.3333333 29.3816028,18.3333333 C29.7839158,18.2599899 30.1060806,18.1133031 30.1862289,17.8948008 L30.1862289,17.8948008 Z" id="Path"></path>
                        </g>
                    </g>
                </g>
            </g>
        </g>
    </g>
</svg>

<svg width="38" height="20" viewBox="0 0 38 20" xmlns="http://www.w3.org/2000/svg"><g id="PDP-Vodafone-One-ilimitada-Total-WS10-600mbps" stroke="none" stroke-width="1" fill="none" fill-rule="evenodd"><g id="PDP-Oferta-Norte-Desktop---Destiny-4.0---Ilimitada-Plus-600" transform="translate(-33 -1039)" fill="#E60000" fill-rule="nonzero"><g id="Blocks/-Desktop-/-Product-detail-/-Example" transform="translate(20 572)"><g id="Product-detail-/-Desktop-Tablet-/-2-lines" transform="translate(0 445)"><g id="Group" transform="translate(10 10)"><g id="thunder-3" transform="translate(3.667 12.833)"><path d="M4.896 17.895l6.89-9.365a.576.576 0 000-.73.966.966 0 00-.783-.367H6.377L7.86.849a.62.62 0 00-.114-.52.765.765 0 00-.495-.286c-.402-.125-.846.03-1.047.367L.1 10.799c-.173.218-.087.512 0 .73.176.22.436.367.698.367h3.925l-1.57 5.485c-.107.37.12.753.523.879.088.073.262.073.349.073.435-.073.784-.22.871-.438zm11.917 0l6.89-9.365a.576.576 0 000-.73.966.966 0 00-.783-.367h-4.624L19.779.849a.62.62 0 00-.114-.52.765.765 0 00-.496-.286c-.402-.125-.846.03-1.047.367l-6.105 10.389c-.174.218-.087.512 0 .73.175.22.436.367.698.367h3.924l-1.57 5.485c-.107.37.12.753.523.879.089.073.262.073.35.073.435-.073.784-.22.87-.438zm13.373 0l6.36-9.365a.614.614 0 000-.73.867.867 0 00-.723-.367h-4.268L32.924.849a.66.66 0 00-.105-.52.697.697 0 00-.458-.286.808.808 0 00-.966.367l-5.636 10.389c-.16.218-.08.512 0 .73.162.22.403.367.645.367h3.622l-1.449 5.485a.731.731 0 00.482.879c.082.073.242.073.323.073.402-.073.724-.22.804-.438z" id="Path"/></g></g></g></g></g></g></svg>
